polaris-icons/icons/newicons/DuplicateMinor.svg

<svg width="20" height="20" viewBox="0 0 20 20" fill="none" xmlns="http://www.w3.org/2000/svg">
<path d="M8.5 8.75C8.91421 8.75 9.25 9.08579 9.25 9.5V10.75H10.5C10.9142 10.75 11.25 11.0858 11.25 11.5C11.25 11.9142 10.9142 12.25 10.5 12.25H9.25V13.5C9.25 13.9142 8.91421 14.25 8.5 14.25C8.08579 14.25 7.75 13.9142 7.75 13.5V12.25H6.5C6.08579 12.25 5.75 11.9142 5.75 11.5C5.75 11.0858 6.08579 10.75 6.5 10.75H7.75V9.5C7.75 9.08579 8.08579 8.75 8.5 8.75Z" fill="black"/>
<path fill-rule="evenodd" clip-rule="evenodd" d="M6 6C6 4.34315 7.34315 3 9 3H14C15.6569 3 17 4.34315 17 6V11C17 12.6569 15.6569 14 14 14C14 15.6569 12.6569 17 11 17H6C4.34315 17 3 15.6569 3 14V9C3 7.34315 4.34315 6 6 6ZM14 4.5H9C8.17157 4.5 7.5 5.17157 7.5 6L11 6C12.6569 6 14 7.34315 14 9V12.5C14.8284 12.5 15.5 11.8284 15.5 11V6C15.5 5.17157 14.8284 4.5 14 4.5ZM6 7.5H11C11.8284 7.5 12.5 8.17157 12.5 9V14C12.5 14.8284 11.8284 15.5 11 15.5H6C5.17157 15.5 4.5 14.8284 4.5 14V9C4.5 8.17157 5.17157 7.5 6 7.5Z" fill="black"/>
</svg>

<svg viewBox="0 0 20 20" fill="none" xmlns="http://www.w3.org/2000/svg"><path d="M8.5 8.75a.75.75 0 0 1 .75.75v1.25h1.25a.75.75 0 0 1 0 1.5h-1.25v1.25a.75.75 0 0 1-1.5 0v-1.25h-1.25a.75.75 0 0 1 0-1.5h1.25v-1.25a.75.75 0 0 1 .75-.75Z" fill="#000"/><path fill-rule="evenodd" clip-rule="evenodd" d="M6 6a3 3 0 0 1 3-3h5a3 3 0 0 1 3 3v5a3 3 0 0 1-3 3 3 3 0 0 1-3 3h-5a3 3 0 0 1-3-3v-5a3 3 0 0 1 3-3Zm8-1.5h-5a1.5 1.5 0 0 0-1.5 1.5h3.5a3 3 0 0 1 3 3v3.5a1.5 1.5 0 0 0 1.5-1.5v-5a1.5 1.5 0 0 0-1.5-1.5Zm-8 3h5a1.5 1.5 0 0 1 1.5 1.5v5a1.5 1.5 0 0 1-1.5 1.5h-5a1.5 1.5 0 0 1-1.5-1.5v-5a1.5 1.5 0 0 1 1.5-1.5Z" fill="#000"/></svg>
